packages/katcn/src/icons/svg/next.svg

<svg width="24" height="25" viewBox="0 0 24 25" fill="none" xmlns="http://www.w3.org/2000/svg">
<path fill-rule="evenodd" clip-rule="evenodd" d="M12.162 4.66232C12.4634 4.19951 13.0829 4.06864 13.5457 4.37001L21.5652 9.59211C23.4783 10.8217 23.4783 13.5943 21.5652 14.8239L13.5457 20.046C13.0829 20.3474 12.4634 20.2165 12.162 19.7537C11.8606 19.2909 11.9915 18.6714 12.4543 18.37L20.4825 13.1423C21.1725 12.6999 21.1725 11.7161 20.4825 11.2737L20.4766 11.2699L12.4543 6.046C11.9915 5.74463 11.8606 5.12514 12.162 4.66232Z" fill="black"/>
<path fill-rule="evenodd" clip-rule="evenodd" d="M1 7.20584C1 4.79886 3.59093 3.4578 5.54629 4.65159L5.5522 4.6552L13.6194 9.65739C13.6277 9.66254 13.6359 9.66781 13.6441 9.6732C15.452 10.8689 15.452 13.5471 13.6441 14.7428C13.6359 14.7482 13.6277 14.7535 13.6194 14.7586L5.54631 19.7645C3.59094 20.9582 1 19.6172 1 17.2102V7.20584ZM4.50164 6.35709C3.83556 5.95285 3 6.41242 3 7.20584V17.2102C3 18.0036 3.83554 18.4632 4.50161 18.059L12.5509 13.0679C13.1497 12.6617 13.1497 11.7543 12.5509 11.3481L4.50164 6.35709Z" fill="black"/>
</svg>

<svg xmlns="http://www.w3.org/2000/svg" fill="none" viewBox="0 0 24 25"><path fill="#000" fill-rule="evenodd" d="M12.162 4.662a1 1 0 0 1 1.384-.292l8.02 5.222a3.102 3.102 0 0 1 0 5.232l-8.02 5.222a1 1 0 0 1-1.092-1.676l8.029-5.228c.69-.442.69-1.426 0-1.868l-.006-.004-8.023-5.224a1 1 0 0 1-.292-1.384" clip-rule="evenodd"/><path fill="#000" fill-rule="evenodd" d="M1 7.206c0-2.407 2.59-3.748 4.546-2.554l.006.003 8.067 5.002.025.016c1.808 1.196 1.808 3.874 0 5.07l-.025.016-8.073 5.006C3.591 20.958 1 19.617 1 17.21zm3.502-.849A.98.98 0 0 0 3 7.206V17.21a.98.98 0 0 0 1.502.849l8.049-4.991a1.048 1.048 0 0 0 0-1.72z" clip-rule="evenodd"/></svg>
